!!!COM: Schubert, Franz
!!!CNT: Deutscher
!!!TXO: Deutsch
!!!OTL: "Die Wetterfahne"
!!!OPR: Winterreise
!!!LYR: Mu2ller, Wilhelm
!!!OPS: Opus 89
!!!ONM: No. 2
!!!ODT: 1827/
!!NB: Vocal melody only encoded.
**kern	**silbe
*clefG2	*
*k[]	*
*M6/8	*
*MM[geschwind]	*
=5	=5
4r	.
8r	.
4r	.
{8e	{Der
=6	=6
8cc	Wind
8b	|
8a	spielt
8g#	mit
8b	|
8cc	der
=7	=7
8dd	Wet-
8cc	|
8b	-ter
8a	fah-
8cc	-ne
8dd	auf
=8	=8
8ee	mei-
8dd	|
8cc	-nes
8ff	scho2-
8ee	|
8dd#	-nen
=9	=9
8ee	Lieb-
8b	|
8g#	-schens
4ee}	Haus.}
8r	.
=10	=10
4r	.
8r	.
4r	.
{8b	{Da
=11	=11
4cc	dacht'
8ee	ich
8.dd	schon
16dd	in
16cc	mei-
16b	-nem
=12	=12
8cc	Wah-
8g	-ne:
8ee	sie
8ee	pfiff
8gg	|
8ee	den
=13	=13
8ee	ar-
8gg	|
8ee	-men
8ee	Flu2cht-
8ff#	|
8dd#	-ling
=14	=14
[4.ee	aus.
4ee]}	|}
{8e	{Er
=15	=15
8f#	ha2tt'
8cc	|
8f#	es
16a	e-
16g	|
8.g	-her
16g	be-
=16	=16
8f#	-mer-
8cc	|
8f#	-ken
16a	sol-
16g	|
8g	-len
16r	.
16g	des
=17	=17
8g#	Hau-
8dd	|
8g#	-ses
8a	auf-
8ee	|
8a	-ge-
=18	=18
16g#	-steck-
16ff	|
16ee	|
16dd	|
16cc	-tes
16b	|
4a}	Schild,}
{8a	{so
=19	=19
8a	ha2t'
8ee	|
8a	er
8.ff	nim-
16ee	|
8dd	-mer
=20	=20
8cc	su-
16dd	|
16cc	|
16b-	-chen
16a	|
8g	wol-
8b-	-len
8dd	im
=21	=21
8dd	Haus
8ff	|
8dd	ein
8dd	treu-
8ff	|
8dd	-es
=22	=22
8.dd	Frau-
16ee	|
8cc#	-en-
4dd}	-bild.}
8r	.
=24	=24
4r	.
8r	.
4r	.
{8e	{Der
=25	=25
8ccn	Wind
8b	|
8a	spielt
8g#	drin-
8b	|
8cc	-nen
=26	=26
8dd	mit
8cc	|
8b	den
8a	Her-
8cc	|
8dd	-zen
=27	=27
8ee	wie
8dd	auf
8cc	dem
4ff;	Dach,
8dd#	nur
=28	=28
8ee	nicht
8b	|
8g#	so
4ee}	laut.}
8r;	.
=29	=29
4r	.
8r	.
4r	.
{8b	{Was
=30	=30
4cc	fra-
8dd-	-gen
8.cc	sie
16dd-	nach
16cc	mei-
16dd-	-nen
=31	=31
4cc	Schmer-
8a	-zen?
4r	.
8a	ihr
=32	=32
8ee	Kind
8cc#	|
8a	ist
16a	ei-
16b	|
16cc#	|
16dd	|
16ee	-ne
16ff#	|
=33	=33
4ee	rei-
8g#	-che
4a}	Braut.}
8r	.
=34	=34
4r	.
8r	.
4r	.
{8a	{Der
=35	=35
8dd	Wind
8ccn	|
8b	spielt
8a	drin-
8b	|
8ccn	-nen
=36	=36
8dd	mit
8ccn	|
8b	den
8a	Her-
8cc	|
8dd	-zen
=37	=37
8ee	wie
8dd	auf
8cc	dem
4ff;	Dach,
8dd#	nur
=38	=38
8ee	nicht
8b	|
8g#	so
4ee}	laut.}
8r;	.
=39	=39
4r	.
8r	.
4r	.
{8b	{Was
=40	=40
4cc	fra-
8dd-	-gen
8.cc	sie
16dd-	nach
16cc	mei-
16dd-	-nen
=41	=41
4cc	Schmer-
8a}	-zen?}
4r	.
{8cc#	{was
=42	=42
4dd	fra-
8ee-	-gen
8.dd	sie
16ee-	nach
16dd	mei-
16ee-	-nen
=43	=43
4dd	Schmer-
8b-	-zen?
4r	.
8a	ihr
=44	=44
8ee	Kind
8cc#	|
8a	ist
16a	ei-
16ff#	|
16ee	|
16dd	|
16cc#	-ne
16b	|
=45	=45
[4.ee	rei-
4ee]	|
8g#	-che
=46	=46
4a}	Braut.}
8r	.
4r	.
8r	.
*-	*-
